src/pos-icons/filter-variant-plus.svg

<svg height="24" viewBox="0 0 24 24" width="24" xmlns="http://www.w3.org/2000/svg"><path d="m21 8h-18v-2h18zm-7.19 8h-3.81v2h3.09c.12-.72.37-1.39.72-2m4.19-5h-12v2h12zm0 4v3h-3v2h3v3h2v-3h3v-2h-3v-3z"/></svg>

<?xml version="1.0" encoding="UTF-8"?><!DOCTYPE svg PUBLIC "-//W3C//DTD SVG 1.1//EN" "http://www.w3.org/Graphics/SVG/1.1/DTD/svg11.dtd"><svg xmlns="http://www.w3.org/2000/svg" xmlns:xlink="http://www.w3.org/1999/xlink" version="1.1" id="mdi-filter-variant-plus" width="24" height="24" viewBox="0 0 24 24"><path d="M21 8H3V6H21V8M13.81 16H10V18H13.09C13.21 17.28 13.46 16.61 13.81 16M18 11H6V13H18V11M18 15V18H15V20H18V23H20V20H23V18H20V15H18Z" /></svg>
